X:54
T:T031D- Emon O Knock
S:from Cooke's Selection', c 1795 & Hime's, c 1805
Q:1/4=60
L:1/4
M:3/4
K:G
(G/4E/4D/4E/4)|G B/d/d/G/|Bg3/4f/4 e/4d/4c/4B/4|A G/B/A/G/|\
G2::d3/4e/8f/8|g(f/e/) (a/g/)|(g/f/)(e/d/) d3/4(g/8f/8)|\
e/d/B/A/ (G/4A/4B/4d/4)|eg(G/4E/4D/4E/4)|GB/e/e/G/|\
Bg/f/ (e/4d/4c/4B/4)|A G/B/A/G/|G2:|]

